X: 10584
T: OLD IRELAND -- Reel
R: reel
B: K\"ohler's Violin Repository, v.1, 1885 p.58 #4
F: http://www.archive.org/details/klersviolinrepos01edin
Z: 2011 John Chambers <jc:trillian.mit.edu>
M: C|
L: 1/8
K: Em
|:\
v[E2G,2]Bc ({Bc}BA)GF | ({EF}ED)dB (AF)ED | E2Bc ({Bc}BA)GF | (Ec)B^d ue2uE2 :|
vE2ga {ga}g2e^c | D2de {de}d2AF | E2ga {ga}g2ec | (Bg)f^d ue2uE2 |
vE2ga {ga}g2e^c | D2de {de}d2AF | (DF)EG (FA)GB | (Ac)B^d (eB)GF "^D.C."|]

%%sep 2 1 500

